outputs/icons/action/alarm_round.svg

<svg xmlns="http://www.w3.org/2000/svg" width="1200" height="1200" fill="none"><g clip-path="url(#a)"><path fill="#000" d="m793.49 762.505-168.5-100V436.007c0-20-16-36-36-36h-3c-20 0-36 16-36 36v235.998c0 17.5 9 34 24.5 43l182.5 109.5c17 10 39 5 49-12 10.5-17.5 5-40-12.5-50m265.5-511.998-154-128c-21-17.5-52.5-15-70.5 6.5-17.5 21-14.5 52.5 6.5 70.5l153.5 128c21 17.5 52.5 15 70.5-6.5 18-21 15-52.5-6-70.5m-854.002 77 153.5-128c21.5-18 24.5-49.5 6.5-70.5-17.5-21.5-49-24-70-6.5l-154 128c-21 18-24 49.5-6 70.5 17.5 21.5 49 24 70 6.5m395.002-127.5c-248.502 0-450.002 201.5-450.002 449.998 0 248.5 201.5 450 450.002 450 248.5 0 450-201.5 450-450 0-248.498-201.5-449.998-450-449.998m0 799.998c-193.002 0-350.002-157-350.002-350 0-192.998 157-349.998 350.002-349.998 193 0 350 157 350 349.998 0 193-157 350-350 350"/></g><defs><clipPath id="a"><path fill="#fff" d="M0 0h1200v1200H0z"/></clipPath></defs></svg>

<svg width="1200" height="1200" viewBox="0 0 1200 1200" fill="none" xmlns="http://www.w3.org/2000/svg"><g clip-path="url(#clip0_223_1896)"><path d="M793.49 762.505L624.99 662.505V436.007C624.99 416.007 608.99 400.007 588.99 400.007H585.99C565.99 400.007 549.99 416.007 549.99 436.007V672.005C549.99 689.505 558.99 706.005 574.49 715.005L756.99 824.505C773.99 834.505 795.99 829.505 805.99 812.505C816.49 795.005 810.99 772.505 793.49 762.505ZM1058.99 250.507L904.99 122.507C883.99 105.007 852.49 107.507 834.49 129.007C816.99 150.007 819.99 181.507 840.99 199.507L994.49 327.507C1015.49 345.007 1046.99 342.507 1064.99 321.007C1082.99 300.007 1079.99 268.507 1058.99 250.507ZM204.988 327.507L358.488 199.507C379.988 181.507 382.988 150.007 364.988 129.007C347.488 107.507 315.988 105.007 294.988 122.507L140.988 250.507C119.988 268.507 116.988 300.007 134.988 321.007C152.488 342.507 183.988 345.007 204.988 327.507ZM599.99 200.007C351.488 200.007 149.988 401.507 149.988 650.005C149.988 898.505 351.488 1100.005 599.99 1100.005C848.49 1100.005 1049.99 898.505 1049.99 650.005C1049.99 401.507 848.49 200.007 599.99 200.007ZM599.99 1000.005C406.988 1000.005 249.988 843.005 249.988 650.005C249.988 457.007 406.988 300.007 599.99 300.007C792.99 300.007 949.99 457.007 949.99 650.005C949.99 843.005 792.99 1000.005 599.99 1000.005Z" fill="#1D1E23"/></g><defs><clipPath id="clip0_223_1896"><path width="24" fill="white" d="M0 0H1200V1200H0V0z"/></clipPath></defs></svg>
